src/assets/icons/whatsapp.svg

<?xml version="1.0" encoding="UTF-8"?>
<svg fill="none" viewBox="0 0 16.571 16.654" xmlns="http://www.w3.org/2000/svg">
<desc>Whatsapp Icon</desc>
<path id="a" d="m14.15 2.42c-1.55-1.56-3.63-2.42-5.84-2.42-4.54 0-8.25 3.7-8.25 8.25 0 1.45 0.38 2.87 1.11 4.12l-1.17 4.28 4.37-1.15c1.2 0.66 2.56 1.01 3.94 1.01 4.55 0 8.25-3.71 8.26-8.26 0-2.2-0.86-4.27-2.42-5.83zm-5.83 12.69c-1.23 0-2.44-0.33-3.5-0.95l-0.25-0.15-2.59 0.68 0.69-2.53-0.16-0.26c-0.69-1.09-1.05-2.35-1.05-3.65 0-3.79 3.08-6.86 6.86-6.86 1.83 0 3.55 0.71 4.85 2.01 1.29 1.3 2.01 3.02 2 4.85 0 3.79-3.07 6.86-6.85 6.86zm3.76-5.14c-0.21-0.1-1.22-0.6-1.41-0.67-0.19-0.06-0.33-0.1-0.46 0.11-0.14 0.2-0.54 0.67-0.66 0.81-0.12 0.13-0.24 0.15-0.44 0.05-0.21-0.1-0.88-0.32-1.66-1.03-0.61-0.54-1.03-1.22-1.15-1.42-0.12-0.21-0.01-0.32 0.09-0.43 0.09-0.09 0.21-0.24 0.31-0.36s0.14-0.2 0.21-0.34c0.06-0.14 0.03-0.26-0.02-0.36-0.05-0.11-0.47-1.12-0.64-1.54-0.17-0.4-0.33-0.34-0.46-0.35-0.12-0.01-0.26-0.01-0.4-0.01-0.13 0-0.36 0.06-0.55 0.26-0.18 0.21-0.72 0.71-0.72 1.72 0 1.02 0.74 2 0.84 2.13 0.11 0.14 1.46 2.22 3.53 3.12 0.49 0.21 0.87 0.34 1.17 0.43 0.5 0.16 0.95 0.14 1.3 0.08 0.4-0.06 1.22-0.5 1.39-0.97 0.17-0.49 0.17-0.9 0.12-0.98-0.05-0.09-0.19-0.14-0.39-0.25z" fill="#25D366" fill-rule="evenodd"/>
<path d="m8.31 0c-4.54 0-8.25 3.7-8.25 8.25 0 1.45 0.38 2.87 1.11 4.12l-1.17 4.28 4.37-1.15c1.2 0.66 2.56 1.01 3.94 1.01 4.55 0 8.25-3.71 8.26-8.26 0-2.2-0.86-4.27-2.42-5.83-1.55-1.56-3.63-2.42-5.84-2.42zm-3.49 14.16-0.25-0.15-2.59 0.68 0.69-2.53-0.16-0.26c-0.69-1.09-1.05-2.35-1.05-3.65 0-3.79 3.08-6.86 6.86-6.86 1.83 0 3.55 0.71 4.85 2.01 1.29 1.3 2.01 3.02 2 4.85 0 3.79-3.07 6.86-6.85 6.86-1.23 0-2.44-0.33-3.5-0.95zm5.85-4.86c-0.19-0.06-0.33-0.1-0.46 0.11-0.14 0.2-0.54 0.67-0.66 0.81-0.12 0.13-0.24 0.15-0.44 0.05-0.21-0.1-0.88-0.32-1.66-1.03-0.61-0.54-1.03-1.22-1.15-1.42-0.12-0.21-0.01-0.32 0.09-0.43 0.09-0.09 0.21-0.24 0.31-0.36s0.14-0.2 0.21-0.34c0.06-0.14 0.03-0.26-0.02-0.36-0.05-0.11-0.47-1.12-0.64-1.54-0.17-0.4-0.33-0.34-0.46-0.35-0.12-0.01-0.26-0.01-0.4-0.01-0.13 0-0.36 0.06-0.55 0.26-0.18 0.21-0.72 0.71-0.72 1.72 0 1.02 0.74 2 0.84 2.13 0.11 0.14 1.46 2.22 3.53 3.12 0.49 0.21 0.87 0.34 1.17 0.43 0.5 0.16 0.95 0.14 1.3 0.08 0.4-0.06 1.22-0.5 1.39-0.97 0.17-0.49 0.17-0.9 0.12-0.98-0.05-0.09-0.19-0.14-0.39-0.25-0.21-0.1-1.22-0.6-1.41-0.67z" stroke="#707070" stroke-opacity="0"/>
</svg>

<svg width="16.571289" height="16.654480" viewBox="0 0 16.5713 16.6545" fill="none" xmlns="http://www.w3.org/2000/svg" xmlns:xlink="http://www.w3.org/1999/xlink">
	<desc>
			Created with Pixso.
	</desc>
	<defs/>
	<path id="Path 34390" d="M14.15 2.42C12.6 0.86 10.52 0 8.31 0C3.77 0 0.06 3.7 0.06 8.25C0.06 9.7 0.44 11.12 1.17 12.37L0 16.65L4.37 15.5C5.57 16.16 6.93 16.51 8.31 16.51C12.86 16.51 16.56 12.8 16.57 8.25C16.57 6.05 15.71 3.98 14.15 2.42ZM8.32 15.11C7.09 15.11 5.88 14.78 4.82 14.16L4.57 14.01L1.98 14.69L2.67 12.16L2.51 11.9C1.82 10.81 1.46 9.55 1.46 8.25C1.46 4.46 4.54 1.39 8.32 1.39C10.15 1.39 11.87 2.1 13.17 3.4C14.46 4.7 15.18 6.42 15.17 8.25C15.17 12.04 12.1 15.11 8.32 15.11ZM12.08 9.97C11.87 9.87 10.86 9.37 10.67 9.3C10.48 9.24 10.34 9.2 10.21 9.41C10.07 9.61 9.67 10.08 9.55 10.22C9.43 10.35 9.31 10.37 9.11 10.27C8.9 10.17 8.23 9.95 7.45 9.24C6.84 8.7 6.42 8.02 6.3 7.82C6.18 7.61 6.29 7.5 6.39 7.39C6.48 7.3 6.6 7.15 6.7 7.03C6.8 6.91 6.84 6.83 6.91 6.69C6.97 6.55 6.94 6.43 6.89 6.33C6.84 6.22 6.42 5.21 6.25 4.79C6.08 4.39 5.92 4.45 5.79 4.44C5.67 4.43 5.53 4.43 5.39 4.43C5.26 4.43 5.03 4.49 4.84 4.69C4.66 4.9 4.12 5.4 4.12 6.41C4.12 7.43 4.86 8.41 4.96 8.54C5.07 8.68 6.42 10.76 8.49 11.66C8.98 11.87 9.36 12 9.66 12.09C10.16 12.25 10.61 12.23 10.96 12.17C11.36 12.11 12.18 11.67 12.35 11.2C12.52 10.71 12.52 10.3 12.47 10.22C12.42 10.13 12.28 10.08 12.08 9.97Z" fill="#25D366" fill-opacity="1.000000" fill-rule="evenodd"/>
	<path id="Path 34390" d="M8.31 0C3.77 0 0.06 3.7 0.06 8.25C0.06 9.7 0.44 11.12 1.17 12.37L0 16.65L4.37 15.5C5.57 16.16 6.93 16.51 8.31 16.51C12.86 16.51 16.56 12.8 16.57 8.25C16.57 6.05 15.71 3.98 14.15 2.42C12.6 0.86 10.52 0 8.31 0ZM4.82 14.16L4.57 14.01L1.98 14.69L2.67 12.16L2.51 11.9C1.82 10.81 1.46 9.55 1.46 8.25C1.46 4.46 4.54 1.39 8.32 1.39C10.15 1.39 11.87 2.1 13.17 3.4C14.46 4.7 15.18 6.42 15.17 8.25C15.17 12.04 12.1 15.11 8.32 15.11C7.09 15.11 5.88 14.78 4.82 14.16ZM10.67 9.3C10.48 9.24 10.34 9.2 10.21 9.41C10.07 9.61 9.67 10.08 9.55 10.22C9.43 10.35 9.31 10.37 9.11 10.27C8.9 10.17 8.23 9.95 7.45 9.24C6.84 8.7 6.42 8.02 6.3 7.82C6.18 7.61 6.29 7.5 6.39 7.39C6.48 7.3 6.6 7.15 6.7 7.03C6.8 6.91 6.84 6.83 6.91 6.69C6.97 6.55 6.94 6.43 6.89 6.33C6.84 6.22 6.42 5.21 6.25 4.79C6.08 4.39 5.92 4.45 5.79 4.44C5.67 4.43 5.53 4.43 5.39 4.43C5.26 4.43 5.03 4.49 4.84 4.69C4.66 4.9 4.12 5.4 4.12 6.41C4.12 7.43 4.86 8.41 4.96 8.54C5.07 8.68 6.42 10.76 8.49 11.66C8.98 11.87 9.36 12 9.66 12.09C10.16 12.25 10.61 12.23 10.96 12.17C11.36 12.11 12.18 11.67 12.35 11.2C12.52 10.71 12.52 10.3 12.47 10.22C12.42 10.13 12.28 10.08 12.08 9.97C11.87 9.87 10.86 9.37 10.67 9.3Z" stroke="#707070" stroke-opacity="0" stroke-width="1.000000"/>
</svg>
